X: 14944
T: Gavottes Des Montagnes
R: polka
M: 2/4
K: Aminor
AB cd|ef {ef}ed|cA cB|A2 A2-|
AB cd|ef {ef}ed|cA cB|A2 A2||
|:AB cd|ef g2|f/e/d fe|c2 c2|
AB cd|ef {ef}ed|cA cB|A2 A2:|

